images/276580.svg

<?xml version="1.0" encoding="UTF-8"?>
<svg xmlns="http://www.w3.org/2000/svg" xmlns:xlink="http://www.w3.org/1999/xlink" width="300pt" height="300pt" viewBox="0 0 300 300" version="1.1">
<defs>
<g>
<symbol overflow="visible" id="glyph0-0">
<path style="stroke:none;" d="M 0.453125 1.59375 L 0.453125 -6.34375 L 4.953125 -6.34375 L 4.953125 1.59375 Z M 0.953125 1.09375 L 4.453125 1.09375 L 4.453125 -5.84375 L 0.953125 -5.84375 Z M 0.953125 1.09375 "/>
</symbol>
<symbol overflow="visible" id="glyph0-1">
<path style="stroke:none;" d="M 0.890625 -6.5625 L 4.65625 -6.5625 L 4.65625 -5.8125 L 1.765625 -5.8125 L 1.765625 -3.875 L 4.375 -3.875 L 4.375 -3.140625 L 1.765625 -3.140625 L 1.765625 0 L 0.890625 0 Z M 0.890625 -6.5625 "/>
</symbol>
<symbol overflow="visible" id="glyph0-2">
<path style="stroke:none;" d="M 0.890625 -6.5625 L 1.765625 -6.5625 L 1.765625 -3.875 L 5 -3.875 L 5 -6.5625 L 5.890625 -6.5625 L 5.890625 0 L 5 0 L 5 -3.125 L 1.765625 -3.125 L 1.765625 0 L 0.890625 0 Z M 0.890625 -6.5625 "/>
</symbol>
<symbol overflow="visible" id="glyph0-3">
<path style="stroke:none;" d="M 3.546875 -5.953125 C 2.898438 -5.953125 2.382812 -5.710938 2 -5.234375 C 1.625 -4.753906 1.4375 -4.101562 1.4375 -3.28125 C 1.4375 -2.445312 1.625 -1.789062 2 -1.3125 C 2.382812 -0.832031 2.898438 -0.59375 3.546875 -0.59375 C 4.191406 -0.59375 4.703125 -0.832031 5.078125 -1.3125 C 5.453125 -1.789062 5.640625 -2.445312 5.640625 -3.28125 C 5.640625 -4.101562 5.453125 -4.753906 5.078125 -5.234375 C 4.703125 -5.710938 4.191406 -5.953125 3.546875 -5.953125 Z M 3.546875 -6.6875 C 4.460938 -6.6875 5.195312 -6.375 5.75 -5.75 C 6.300781 -5.132812 6.578125 -4.3125 6.578125 -3.28125 C 6.578125 -2.238281 6.300781 -1.410156 5.75 -0.796875 C 5.195312 -0.179688 4.460938 0.125 3.546875 0.125 C 2.617188 0.125 1.878906 -0.179688 1.328125 -0.796875 C 0.773438 -1.410156 0.5 -2.238281 0.5 -3.28125 C 0.5 -4.3125 0.773438 -5.132812 1.328125 -5.75 C 1.878906 -6.375 2.617188 -6.6875 3.546875 -6.6875 Z M 3.546875 -6.6875 "/>
</symbol>
<symbol overflow="visible" id="glyph0-4">
<path style="stroke:none;" d="M 0.890625 -6.5625 L 2.078125 -6.5625 L 4.984375 -1.078125 L 4.984375 -6.5625 L 5.84375 -6.5625 L 5.84375 0 L 4.65625 0 L 1.75 -5.484375 L 1.75 0 L 0.890625 0 Z M 0.890625 -6.5625 "/>
</symbol>
</g>
</defs>
<g id="surface17061">
<rect x="0" y="0" width="300" height="300" style="fill:rgb(100%,100%,100%);fill-opacity:1;stroke:none;"/>
<path style="fill:none;stroke-width:1.2;stroke-linecap:butt;stroke-linejoin:miter;stroke:rgb(20%,80%,80%);stroke-opacity:1;stroke-miterlimit:10;" d="M 35.25 143.382812 L 43.566406 149.886719 "/>
<path style="fill:none;stroke-width:1.2;stroke-linecap:butt;stroke-linejoin:miter;stroke:rgb(0%,0%,0%);stroke-opacity:1;stroke-miterlimit:10;" d="M 43.566406 149.886719 L 51.882812 156.394531 "/>
<path style=" stroke:none;fill-rule:nonzero;fill:rgb(100%,100%,100%);fill-opacity:1;" d="M 29.25 137.882812 L 35.25 137.882812 L 35.25 148.882812 L 29.25 148.882812 Z M 29.25 137.882812 "/>
<g style="fill:rgb(20%,80%,80%);fill-opacity:1;">
  <use xlink:href="#glyph0-1" x="29.25" y="146.545898"/>
</g>
<path style="fill:none;stroke-width:1.2;stroke-linecap:butt;stroke-linejoin:miter;stroke:rgb(0%,0%,0%);stroke-opacity:1;stroke-miterlimit:10;" d="M 51.882812 156.394531 L 45.375 164.707031 "/>
<path style="fill:none;stroke-width:1.2;stroke-linecap:butt;stroke-linejoin:miter;stroke:rgb(20%,80%,80%);stroke-opacity:1;stroke-miterlimit:10;" d="M 45.375 164.707031 L 38.871094 173.023438 "/>
<path style="fill:none;stroke-width:1.2;stroke-linecap:butt;stroke-linejoin:miter;stroke:rgb(0%,0%,0%);stroke-opacity:1;stroke-miterlimit:10;" d="M 51.882812 156.394531 L 58.386719 148.078125 "/>
<path style="fill:none;stroke-width:1.2;stroke-linecap:butt;stroke-linejoin:miter;stroke:rgb(20%,80%,80%);stroke-opacity:1;stroke-miterlimit:10;" d="M 58.386719 148.078125 L 64.894531 139.761719 "/>
<path style="fill:none;stroke-width:1;stroke-linecap:butt;stroke-linejoin:miter;stroke:rgb(0%,0%,0%);stroke-opacity:1;stroke-miterlimit:10;" d="M 68.511719 169.40625 L 68.511719 169.40625 M 66.507812 167.171875 L 65.863281 167.996094 M 64.5 164.941406 L 63.214844 166.585938 M 62.496094 162.710938 L 60.570312 165.175781 M 60.492188 160.480469 L 57.921875 163.765625 M 58.484375 158.25 L 55.273438 162.355469 M 56.480469 156.019531 L 52.625 160.945312 M 54.472656 153.785156 L 49.976562 159.535156 M 54.175781 153.457031 L 49.585938 159.328125 "/>
<path style=" stroke:none;fill-rule:nonzero;fill:rgb(100%,100%,100%);fill-opacity:1;" d="M 32.871094 167.523438 L 38.871094 167.523438 L 38.871094 178.523438 L 32.871094 178.523438 Z M 32.871094 167.523438 "/>
<g style="fill:rgb(20%,80%,80%);fill-opacity:1;">
  <use xlink:href="#glyph0-1" x="32.871094" y="176.186523"/>
</g>
<path style=" stroke:none;fill-rule:nonzero;fill:rgb(100%,100%,100%);fill-opacity:1;" d="M 61.894531 134.261719 L 67.894531 134.261719 L 67.894531 145.261719 L 61.894531 145.261719 Z M 61.894531 134.261719 "/>
<g style="fill:rgb(20%,80%,80%);fill-opacity:1;">
  <use xlink:href="#glyph0-1" x="61.894531" y="142.924805"/>
</g>
<path style="fill:none;stroke-width:1.2;stroke-linecap:butt;stroke-linejoin:miter;stroke:rgb(0%,0%,0%);stroke-opacity:1;stroke-miterlimit:10;" d="M 68.511719 169.40625 L 67.035156 179.859375 "/>
<path style="fill:none;stroke-width:1.2;stroke-linecap:butt;stroke-linejoin:miter;stroke:rgb(100%,0%,0%);stroke-opacity:1;stroke-miterlimit:10;" d="M 67.035156 179.859375 L 65.558594 190.3125 "/>
<path style="fill:none;stroke-width:1.2;stroke-linecap:butt;stroke-linejoin:miter;stroke:rgb(0%,0%,0%);stroke-opacity:1;stroke-miterlimit:10;" d="M 68.511719 169.40625 L 88.097656 161.507812 "/>
<path style=" stroke:none;fill-rule:nonzero;fill:rgb(100%,100%,100%);fill-opacity:1;" d="M 58.558594 184.8125 L 73.558594 184.8125 L 73.558594 195.8125 L 58.558594 195.8125 Z M 58.558594 184.8125 "/>
<g style="fill:rgb(100%,0%,0%);fill-opacity:1;">
  <use xlink:href="#glyph0-2" x="58.558594" y="193.475586"/>
  <use xlink:href="#glyph0-3" x="65.573242" y="193.475586"/>
</g>
<path style="fill:none;stroke-width:1.2;stroke-linecap:butt;stroke-linejoin:miter;stroke:rgb(0%,0%,0%);stroke-opacity:1;stroke-miterlimit:10;" d="M 88.097656 161.507812 L 91.050781 140.597656 "/>
<path style="fill:none;stroke-width:1.2;stroke-linecap:butt;stroke-linejoin:miter;stroke:rgb(0%,0%,0%);stroke-opacity:1;stroke-miterlimit:10;" d="M 93.3125 160.109375 L 95.675781 143.382812 "/>
<path style="fill:none;stroke-width:1.2;stroke-linecap:butt;stroke-linejoin:miter;stroke:rgb(0%,0%,0%);stroke-opacity:1;stroke-miterlimit:10;" d="M 104.726562 174.519531 L 88.097656 161.507812 "/>
<path style="fill:none;stroke-width:1.2;stroke-linecap:butt;stroke-linejoin:miter;stroke:rgb(0%,0%,0%);stroke-opacity:1;stroke-miterlimit:10;" d="M 91.050781 140.597656 L 110.632812 132.699219 "/>
<path style="fill:none;stroke-width:1.2;stroke-linecap:butt;stroke-linejoin:miter;stroke:rgb(0%,0%,0%);stroke-opacity:1;stroke-miterlimit:10;" d="M 110.632812 132.699219 L 127.265625 145.710938 "/>
<path style="fill:none;stroke-width:1.2;stroke-linecap:butt;stroke-linejoin:miter;stroke:rgb(0%,0%,0%);stroke-opacity:1;stroke-miterlimit:10;" d="M 109.234375 137.914062 L 122.539062 148.324219 "/>
<path style="fill:none;stroke-width:1.2;stroke-linecap:butt;stroke-linejoin:miter;stroke:rgb(0%,0%,0%);stroke-opacity:1;stroke-miterlimit:10;" d="M 110.632812 132.699219 L 113.585938 111.792969 "/>
<path style="fill:none;stroke-width:1.2;stroke-linecap:butt;stroke-linejoin:miter;stroke:rgb(0%,0%,0%);stroke-opacity:1;stroke-miterlimit:10;" d="M 127.265625 145.710938 L 124.3125 166.621094 "/>
<path style="fill:none;stroke-width:1.2;stroke-linecap:butt;stroke-linejoin:miter;stroke:rgb(0%,0%,0%);stroke-opacity:1;stroke-miterlimit:10;" d="M 124.3125 166.621094 L 132.628906 173.128906 "/>
<path style="fill:none;stroke-width:1.2;stroke-linecap:butt;stroke-linejoin:miter;stroke:rgb(0%,0%,100%);stroke-opacity:1;stroke-miterlimit:10;" d="M 132.628906 173.128906 L 140.945312 179.632812 "/>
<path style="fill:none;stroke-width:1.2;stroke-linecap:butt;stroke-linejoin:miter;stroke:rgb(0%,0%,0%);stroke-opacity:1;stroke-miterlimit:10;" d="M 124.3125 166.621094 L 104.726562 174.519531 "/>
<path style="fill:none;stroke-width:1.2;stroke-linecap:butt;stroke-linejoin:miter;stroke:rgb(0%,0%,0%);stroke-opacity:1;stroke-miterlimit:10;" d="M 120.496094 162.804688 L 104.828125 169.121094 "/>
<path style="fill:none;stroke-width:1.2;stroke-linecap:butt;stroke-linejoin:miter;stroke:rgb(0%,0%,100%);stroke-opacity:1;stroke-miterlimit:10;" d="M 140.945312 179.632812 L 150.734375 175.683594 "/>
<path style="fill:none;stroke-width:1.2;stroke-linecap:butt;stroke-linejoin:miter;stroke:rgb(0%,0%,0%);stroke-opacity:1;stroke-miterlimit:10;" d="M 150.734375 175.683594 L 160.527344 171.734375 "/>
<path style=" stroke:none;fill-rule:nonzero;fill:rgb(100%,100%,100%);fill-opacity:1;" d="M 133.945312 174.132812 L 147.945312 174.132812 L 147.945312 185.132812 L 133.945312 185.132812 Z M 133.945312 174.132812 "/>
<g style="fill:rgb(0%,0%,100%);fill-opacity:1;">
  <use xlink:href="#glyph0-4" x="133.945312" y="182.795898"/>
  <use xlink:href="#glyph0-2" x="140.922852" y="182.795898"/>
</g>
<path style="fill:none;stroke-width:1.2;stroke-linecap:butt;stroke-linejoin:miter;stroke:rgb(0%,0%,0%);stroke-opacity:1;stroke-miterlimit:10;" d="M 162.988281 172.082031 L 164.464844 161.628906 "/>
<path style="fill:none;stroke-width:1.2;stroke-linecap:butt;stroke-linejoin:miter;stroke:rgb(100%,0%,0%);stroke-opacity:1;stroke-miterlimit:10;" d="M 164.464844 161.628906 L 165.941406 151.171875 "/>
<path style="fill:none;stroke-width:1.2;stroke-linecap:butt;stroke-linejoin:miter;stroke:rgb(0%,0%,0%);stroke-opacity:1;stroke-miterlimit:10;" d="M 158.066406 171.386719 L 159.542969 160.933594 "/>
<path style="fill:none;stroke-width:1.2;stroke-linecap:butt;stroke-linejoin:miter;stroke:rgb(100%,0%,0%);stroke-opacity:1;stroke-miterlimit:10;" d="M 159.542969 160.933594 L 161.019531 150.480469 "/>
<path style="fill:none;stroke-width:1.2;stroke-linecap:butt;stroke-linejoin:miter;stroke:rgb(0%,0%,0%);stroke-opacity:1;stroke-miterlimit:10;" d="M 160.527344 171.734375 L 168.84375 178.242188 "/>
<path style="fill:none;stroke-width:1.2;stroke-linecap:butt;stroke-linejoin:miter;stroke:rgb(0%,0%,100%);stroke-opacity:1;stroke-miterlimit:10;" d="M 168.84375 178.242188 L 177.160156 184.746094 "/>
<path style=" stroke:none;fill-rule:nonzero;fill:rgb(100%,100%,100%);fill-opacity:1;" d="M 159.480469 145.328125 L 167.480469 145.328125 L 167.480469 156.328125 L 159.480469 156.328125 Z M 159.480469 145.328125 "/>
<g style="fill:rgb(100%,0%,0%);fill-opacity:1;">
  <use xlink:href="#glyph0-3" x="159.480469" y="153.991211"/>
</g>
<path style="fill:none;stroke-width:1;stroke-linecap:butt;stroke-linejoin:miter;stroke:rgb(0%,0%,0%);stroke-opacity:1;stroke-miterlimit:10;" d="M 196.742188 176.851562 L 196.742188 176.851562 M 193.808594 177.472656 L 194.199219 178.4375 M 190.875 178.09375 L 191.652344 180.027344 M 187.9375 178.714844 L 189.109375 181.613281 M 185.003906 179.335938 L 186.5625 183.203125 M 182.070312 179.957031 L 184.019531 184.792969 M 179.132812 180.578125 L 181.472656 186.378906 M 176.199219 181.199219 L 178.929688 187.96875 M 175.765625 181.292969 L 178.554688 188.203125 "/>
<path style=" stroke:none;fill-rule:nonzero;fill:rgb(100%,100%,100%);fill-opacity:1;" d="M 170.160156 179.246094 L 184.160156 179.246094 L 184.160156 190.246094 L 170.160156 190.246094 Z M 170.160156 179.246094 "/>
<g style="fill:rgb(0%,0%,100%);fill-opacity:1;">
  <use xlink:href="#glyph0-4" x="170.160156" y="187.90918"/>
  <use xlink:href="#glyph0-2" x="177.137695" y="187.90918"/>
</g>
<path style="fill:none;stroke-width:1.2;stroke-linecap:butt;stroke-linejoin:miter;stroke:rgb(0%,0%,0%);stroke-opacity:1;stroke-miterlimit:10;" d="M 196.742188 176.851562 L 201.867188 156.363281 "/>
<path style="fill:none;stroke-width:1.2;stroke-linecap:butt;stroke-linejoin:miter;stroke:rgb(0%,0%,0%);stroke-opacity:1;stroke-miterlimit:10;" d="M 214.644531 188.050781 L 196.742188 176.851562 "/>
<path style="fill:none;stroke-width:1.2;stroke-linecap:butt;stroke-linejoin:miter;stroke:rgb(0%,0%,0%);stroke-opacity:1;stroke-miterlimit:10;" d="M 201.867188 156.363281 L 222.933594 154.90625 "/>
<path style="fill:none;stroke-width:1.2;stroke-linecap:butt;stroke-linejoin:miter;stroke:rgb(0%,0%,0%);stroke-opacity:1;stroke-miterlimit:10;" d="M 222.933594 154.90625 L 230.828125 174.488281 "/>
<path style="fill:none;stroke-width:1.2;stroke-linecap:butt;stroke-linejoin:miter;stroke:rgb(0%,0%,0%);stroke-opacity:1;stroke-miterlimit:10;" d="M 228.328125 155.003906 L 234.648438 170.671875 "/>
<path style="fill:none;stroke-width:1.2;stroke-linecap:butt;stroke-linejoin:miter;stroke:rgb(0%,0%,0%);stroke-opacity:1;stroke-miterlimit:10;" d="M 235.945312 138.273438 L 222.933594 154.90625 "/>
<path style="fill:none;stroke-width:1.2;stroke-linecap:butt;stroke-linejoin:miter;stroke:rgb(0%,0%,0%);stroke-opacity:1;stroke-miterlimit:10;" d="M 230.828125 174.488281 L 251.738281 177.441406 "/>
<path style="fill:none;stroke-width:1.2;stroke-linecap:butt;stroke-linejoin:miter;stroke:rgb(0%,0%,0%);stroke-opacity:1;stroke-miterlimit:10;" d="M 230.828125 174.488281 L 214.644531 188.050781 "/>
<path style="fill:none;stroke-width:1.2;stroke-linecap:butt;stroke-linejoin:miter;stroke:rgb(0%,0%,0%);stroke-opacity:1;stroke-miterlimit:10;" d="M 251.738281 177.441406 L 264.75 160.808594 "/>
<path style="fill:none;stroke-width:1.2;stroke-linecap:butt;stroke-linejoin:miter;stroke:rgb(0%,0%,0%);stroke-opacity:1;stroke-miterlimit:10;" d="M 249.125 172.71875 L 259.535156 159.410156 "/>
<path style="fill:none;stroke-width:1.2;stroke-linecap:butt;stroke-linejoin:miter;stroke:rgb(0%,0%,0%);stroke-opacity:1;stroke-miterlimit:10;" d="M 264.75 160.808594 L 256.851562 141.226562 "/>
<path style="fill:none;stroke-width:1.2;stroke-linecap:butt;stroke-linejoin:miter;stroke:rgb(0%,0%,0%);stroke-opacity:1;stroke-miterlimit:10;" d="M 256.851562 141.226562 L 235.945312 138.273438 "/>
<path style="fill:none;stroke-width:1.2;stroke-linecap:butt;stroke-linejoin:miter;stroke:rgb(0%,0%,0%);stroke-opacity:1;stroke-miterlimit:10;" d="M 254.066406 145.851562 L 237.339844 143.488281 "/>
<path style="fill:none;stroke-width:1.2;stroke-linecap:butt;stroke-linejoin:miter;stroke:rgb(0%,0%,0%);stroke-opacity:1;stroke-miterlimit:10;" d="M 235.945312 138.273438 L 231.996094 128.480469 "/>
<path style="fill:none;stroke-width:1.2;stroke-linecap:butt;stroke-linejoin:miter;stroke:rgb(100%,0%,0%);stroke-opacity:1;stroke-miterlimit:10;" d="M 231.996094 128.480469 L 228.046875 118.6875 "/>
<path style="fill:none;stroke-width:1.2;stroke-linecap:butt;stroke-linejoin:miter;stroke:rgb(100%,0%,0%);stroke-opacity:1;stroke-miterlimit:10;" d="M 228.046875 118.6875 L 234.550781 110.375 "/>
<path style="fill:none;stroke-width:1.2;stroke-linecap:butt;stroke-linejoin:miter;stroke:rgb(0%,0%,0%);stroke-opacity:1;stroke-miterlimit:10;" d="M 234.550781 110.375 L 241.058594 102.058594 "/>
<path style=" stroke:none;fill-rule:nonzero;fill:rgb(100%,100%,100%);fill-opacity:1;" d="M 224.046875 113.1875 L 232.046875 113.1875 L 232.046875 124.1875 L 224.046875 124.1875 Z M 224.046875 113.1875 "/>
<g style="fill:rgb(100%,0%,0%);fill-opacity:1;">
  <use xlink:href="#glyph0-3" x="224.046875" y="121.850586"/>
</g>
<path style="fill:none;stroke-width:1;stroke-linecap:butt;stroke-linejoin:miter;stroke:rgb(0%,0%,0%);stroke-opacity:1;stroke-miterlimit:10;" d="M 214.644531 188.050781 L 214.644531 188.050781 M 214.328125 191.035156 L 215.367188 190.964844 M 214.011719 194.019531 L 216.09375 193.875 M 213.695312 197 L 216.816406 196.785156 M 213.378906 199.984375 L 217.542969 199.695312 M 213.0625 202.96875 L 218.265625 202.609375 M 212.75 205.953125 L 218.988281 205.519531 M 212.433594 208.933594 L 219.714844 208.429688 M 212.386719 209.375 L 219.820312 208.859375 "/>
<path style=" stroke:none;fill-rule:nonzero;fill:rgb(100%,100%,100%);fill-opacity:1;" d="M 209.101562 203.617188 L 224.101562 203.617188 L 224.101562 214.617188 L 209.101562 214.617188 Z M 209.101562 203.617188 "/>
<g style="fill:rgb(100%,0%,0%);fill-opacity:1;">
  <use xlink:href="#glyph0-3" x="209.101562" y="212.280273"/>
  <use xlink:href="#glyph0-2" x="216.443359" y="212.280273"/>
</g>
<path style="fill:none;stroke-width:1.2;stroke-linecap:butt;stroke-linejoin:miter;stroke:rgb(0%,0%,0%);stroke-opacity:1;stroke-miterlimit:10;" d="M 104.726562 174.519531 L 103.253906 184.972656 "/>
<path style="fill:none;stroke-width:1.2;stroke-linecap:butt;stroke-linejoin:miter;stroke:rgb(100%,0%,0%);stroke-opacity:1;stroke-miterlimit:10;" d="M 103.253906 184.972656 L 101.777344 195.425781 "/>
<path style="fill:none;stroke-width:1.2;stroke-linecap:butt;stroke-linejoin:miter;stroke:rgb(100%,0%,0%);stroke-opacity:1;stroke-miterlimit:10;" d="M 101.777344 195.425781 L 91.984375 199.375 "/>
<path style="fill:none;stroke-width:1.2;stroke-linecap:butt;stroke-linejoin:miter;stroke:rgb(0%,0%,0%);stroke-opacity:1;stroke-miterlimit:10;" d="M 91.984375 199.375 L 82.191406 203.324219 "/>
<path style=" stroke:none;fill-rule:nonzero;fill:rgb(100%,100%,100%);fill-opacity:1;" d="M 97.777344 189.925781 L 105.777344 189.925781 L 105.777344 200.925781 L 97.777344 200.925781 Z M 97.777344 189.925781 "/>
<g style="fill:rgb(100%,0%,0%);fill-opacity:1;">
  <use xlink:href="#glyph0-3" x="97.777344" y="198.588867"/>
</g>
<path style="fill:none;stroke-width:1.2;stroke-linecap:butt;stroke-linejoin:miter;stroke:rgb(0%,0%,0%);stroke-opacity:1;stroke-miterlimit:10;" d="M 113.585938 111.792969 L 134.496094 114.742188 "/>
<path style="fill:none;stroke-width:1.2;stroke-linecap:butt;stroke-linejoin:miter;stroke:rgb(0%,0%,0%);stroke-opacity:1;stroke-miterlimit:10;" d="M 113.585938 111.792969 L 92.675781 108.839844 "/>
<path style="fill:none;stroke-width:1.2;stroke-linecap:butt;stroke-linejoin:miter;stroke:rgb(0%,0%,0%);stroke-opacity:1;stroke-miterlimit:10;" d="M 113.585938 111.792969 L 116.539062 90.882812 "/>
</g>
</svg>

<svg xmlns="http://www.w3.org/2000/svg" xmlns:xlink="http://www.w3.org/1999/xlink" width="300pt" height="300pt" viewBox="0 0 300 300"><defs><symbol overflow="visible"><path d="M.453 1.594v-7.938h4.5v7.938zm.5-.5h3.5v-6.938h-3.5zm0 0"/></symbol><symbol overflow="visible" id="a"><path d="M.89-6.563h3.766v.75h-2.89v1.938h2.61v.734h-2.61V0H.89zm0 0"/></symbol><symbol overflow="visible" id="b"><path d="M.89-6.563h.876v2.688H5v-2.688h.89V0H5v-3.125H1.766V0H.89zm0 0"/></symbol><symbol overflow="visible" id="c"><path d="M3.547-5.953c-.65 0-1.164.242-1.547.72-.375.48-.563 1.13-.563 1.952 0 .835.188 1.49.563 1.967.383.48.898.72 1.547.72.644 0 1.156-.24 1.53-.72.376-.476.564-1.132.564-1.968 0-.822-.187-1.474-.562-1.954-.375-.477-.887-.72-1.53-.72zm0-.734c.914 0 1.648.312 2.203.937.55.617.828 1.438.828 2.47 0 1.042-.277 1.87-.828 2.483-.555.617-1.29.922-2.203.922-.93 0-1.668-.305-2.22-.922C.774-1.41.5-2.237.5-3.28c0-1.033.273-1.853.828-2.47.55-.625 1.29-.938 2.22-.938zm0 0"/></symbol><symbol overflow="visible" id="d"><path d="M.89-6.563H2.08l2.906 5.485v-5.484h.86V0H4.656L1.75-5.484V0H.89zm0 0"/></symbol></defs><g><path fill="#fff" d="M0 0h300v300H0z"/><path d="M35.25 143.383l8.316 6.504" stroke-width="1.2" stroke="#3cc" stroke-miterlimit="10" fill="none"/><path d="M43.566 149.887l8.317 6.508" stroke-width="1.2" stroke="#000" stroke-miterlimit="10" fill="none"/><path d="M29.25 137.883h6v11h-6zm0 0" fill="#fff"/><use xlink:href="#a" x="29.25" y="146.546" fill="#3cc"/><path d="M51.883 156.395l-6.508 8.312" stroke-width="1.2" stroke="#000" stroke-miterlimit="10" fill="none"/><path d="M45.375 164.707l-6.504 8.316" stroke-width="1.2" stroke="#3cc" stroke-miterlimit="10" fill="none"/><path d="M51.883 156.395l6.504-8.317" stroke-width="1.2" stroke="#000" stroke-miterlimit="10" fill="none"/><path d="M58.387 148.078l6.508-8.316" stroke-width="1.2" stroke="#3cc" stroke-miterlimit="10" fill="none"/><path d="M68.512 169.406m-2.004-2.234l-.645.824M64.5 164.94l-1.285 1.646m-.72-3.875l-1.925 2.466m-.078-4.696l-2.57 3.286m.562-5.516l-3.21 4.105m1.206-6.335l-3.855 4.925m1.848-7.16l-4.496 5.75m4.2-6.078l-4.59 5.87" stroke="#000" stroke-miterlimit="10" fill="none"/><path d="M32.87 167.523h6v11h-6zm0 0" fill="#fff"/><use xlink:href="#a" x="32.871" y="176.187" fill="#3cc"/><path d="M61.895 134.262h6v11h-6zm0 0" fill="#fff"/><use xlink:href="#a" x="61.895" y="142.925" fill="#3cc"/><path d="M68.512 169.406l-1.477 10.453" stroke-width="1.2" stroke="#000" stroke-miterlimit="10" fill="none"/><path d="M67.035 179.86L65.56 190.31" stroke-width="1.2" stroke="#f00" stroke-miterlimit="10" fill="none"/><path d="M68.512 169.406l19.586-7.898" stroke-width="1.2" stroke="#000" stroke-miterlimit="10" fill="none"/><path d="M58.56 184.813h15v11h-15zm0 0" fill="#fff"/><g fill="#f00"><use xlink:href="#b" x="58.559" y="193.476"/><use xlink:href="#c" x="65.573" y="193.476"/></g><path d="M88.098 161.508l2.953-20.91M93.313 160.11l2.363-16.727M104.727 174.52l-16.63-13.012M91.05 140.598l19.583-7.9M110.633 132.7l16.633 13.01M109.234 137.914l13.305 10.41M110.633 132.7l2.953-20.907M127.266 145.71l-2.954 20.91M124.313 166.62l8.316 6.51" stroke-width="1.2" stroke="#000" stroke-miterlimit="10" fill="none"/><path d="M132.63 173.13l8.315 6.503" stroke-width="1.2" stroke="#00f" stroke-miterlimit="10" fill="none"/><path d="M124.313 166.62l-19.586 7.9M120.496 162.805l-15.668 6.316" stroke-width="1.2" stroke="#000" stroke-miterlimit="10" fill="none"/><path d="M140.945 179.633l9.79-3.95" stroke-width="1.2" stroke="#00f" stroke-miterlimit="10" fill="none"/><path d="M150.734 175.684l9.793-3.95" stroke-width="1.2" stroke="#000" stroke-miterlimit="10" fill="none"/><path d="M133.945 174.133h14v11h-14zm0 0" fill="#fff"/><g fill="#00f"><use xlink:href="#d" x="133.945" y="182.796"/><use xlink:href="#b" x="140.923" y="182.796"/></g><path d="M162.988 172.082l1.477-10.453" stroke-width="1.2" stroke="#000" stroke-miterlimit="10" fill="none"/><path d="M164.465 161.63l1.476-10.458" stroke-width="1.2" stroke="#f00" stroke-miterlimit="10" fill="none"/><path d="M158.066 171.387l1.477-10.453" stroke-width="1.2" stroke="#000" stroke-miterlimit="10" fill="none"/><path d="M159.543 160.934l1.477-10.454" stroke-width="1.2" stroke="#f00" stroke-miterlimit="10" fill="none"/><path d="M160.527 171.734l8.317 6.508" stroke-width="1.2" stroke="#000" stroke-miterlimit="10" fill="none"/><path d="M168.844 178.242l8.316 6.504" stroke-width="1.2" stroke="#00f" stroke-miterlimit="10" fill="none"/><path d="M159.48 145.328h8v11h-8zm0 0" fill="#fff"/><use xlink:href="#c" x="159.48" y="153.991" fill="#f00"/><path d="M196.742 176.852m-2.933.62l.39.965m-3.325-.343l.777 1.933m-3.714-1.312l1.17 2.898m-4.104-2.277l1.56 3.867m-4.494-3.246l1.95 4.836m-4.887-4.215l2.34 5.8m-5.274-5.18l2.73 6.77m-3.164-6.675l2.79 6.91" stroke="#000" stroke-miterlimit="10" fill="none"/><path d="M170.16 179.246h14v11h-14zm0 0" fill="#fff"/><g fill="#00f"><use xlink:href="#d" x="170.16" y="187.909"/><use xlink:href="#b" x="177.138" y="187.909"/></g><path d="M196.742 176.852l5.125-20.49M214.645 188.05l-17.903-11.198M201.867 156.363l21.067-1.457M222.934 154.906l7.894 19.582M228.328 155.004l6.32 15.668M235.945 138.273l-13.01 16.633M230.828 174.488l20.91 2.953M230.828 174.488l-16.183 13.563M251.738 177.44l13.012-16.63M249.125 172.72l10.41-13.31M264.75 160.81l-7.898-19.583M256.852 141.227l-20.907-2.954M254.066 145.852l-16.726-2.364M235.945 138.273l-3.95-9.793" stroke-width="1.2" stroke="#000" stroke-miterlimit="10" fill="none"/><path d="M231.996 128.48l-3.95-9.792M228.047 118.688l6.504-8.313" stroke-width="1.2" stroke="#f00" stroke-miterlimit="10" fill="none"/><path d="M234.55 110.375l6.51-8.316" stroke-width="1.2" stroke="#000" stroke-miterlimit="10" fill="none"/><path d="M224.047 113.188h8v11h-8zm0 0" fill="#fff"/><use xlink:href="#c" x="224.047" y="121.851" fill="#f00"/><path d="M214.645 188.05m-.317 2.985l1.04-.07m-1.356 3.055l2.082-.145m-2.4 3.125l3.122-.215m-3.437 3.2l4.163-.29m-4.48 3.274l5.203-.36m-5.516 3.343l6.238-.433m-6.554 3.414l7.28-.504m-7.327.945l7.433-.516" stroke="#000" stroke-miterlimit="10" fill="none"/><path d="M209.102 203.617h15v11h-15zm0 0" fill="#fff"/><g fill="#f00"><use xlink:href="#c" x="209.102" y="212.28"/><use xlink:href="#b" x="216.443" y="212.28"/></g><path d="M104.727 174.52l-1.473 10.453" stroke-width="1.2" stroke="#000" stroke-miterlimit="10" fill="none"/><path d="M103.254 184.973l-1.477 10.453M101.777 195.426l-9.793 3.95" stroke-width="1.2" stroke="#f00" stroke-miterlimit="10" fill="none"/><path d="M91.984 199.375l-9.793 3.95" stroke-width="1.2" stroke="#000" stroke-miterlimit="10" fill="none"/><path d="M97.777 189.926h8v11h-8zm0 0" fill="#fff"/><use xlink:href="#c" x="97.777" y="198.589" fill="#f00"/><path d="M113.586 111.793l20.91 2.95M113.586 111.793l-20.91-2.953M113.586 111.793l2.953-20.91" stroke-width="1.2" stroke="#000" stroke-miterlimit="10" fill="none"/></g></svg>
